**kern	**silbe
*ICvox	*
=1	=1
*G:	*
*M4/4	*
*clefF4	*
1r	.
=2	=2
1r	.
=3	=3
1r	.
=4	=4
1r	.
=5	=5
1r	.
=6	=6
2r	.
4r	.
4F#	I'd
=7	=7
4E	ra-
4D#	-ther
4E	be
4F#	a
=8	=8
4G	spar-
4F#	-row
4G	than
4A	a
=9	=9
1B	snail.
=10	=10
2r	.
8d	Yes,
4.d	I
=11	=11
Aq	would...
2B	_
2r	.
=12	=12
2r	.
8e	if
4.d	I
=13	=13
2.B	could...
4r	.
=14	=14
4r	.
4B	I
4A	sure-
8G	-ly
[8A	would
=15	=15
8A]	_
8G	_
[4E	_
2E]	_
=16	=16
2r	.
8A	Mmm
[8B	_
4B]	_
=17	=17
8A	_
8G	_
[4E	_
2E]	_
=18	=18
2r	.
4r	.
4BB	I'd
=19	=19
4E	ra-
4D#	-ther
4E	be
8F#	a
[8G	ham-
=20	=20
4G]	_
4F#	-mer
4G	than
8A	a
[8B	nail
=21	=21
4B_	_
12B]	_
12A	_
[12G	_
2G]	_
=22	=22
2r	.
8e	Yes,
4.d	I
=23	=23
Aq	would...
2.B	_
4r	.
=24	=24
4r	.
8e	if
8d	I
4e	on-
8d	-ly
[8e	could
=25	=25
8e]	_
8d	_
[4B	_
2B_	_
=26	=26
4B]	,
4B	I
4A	sure-
8G	-ly
[8A	would
=27	=27
8A]	_
8G	_
[4E	_
2E]	_
=28	=28
2r	.
8A	Mmm
[8B	_
4B]	_
=29	=29
8A	_
8G	_
[4E	_
2E]	_
=30	=30
2r	.
4r	.
4B	A-
=31	=31
2.e	-way,
4d	I'd
=32	=32
4.e	ra-
8d	-ther
4.e	sail
8g	a-
=33	=33
4.g	-way
8f#	_
[2e	_
=34	=34
4e]	,
4r	.
e	like
f#	_
4g	_
4e	a
=35	=35
12d	swan
12e	_
[12d	_
2.d_	_
=36	=36
4d]	_
4d	that's
d#q	here
4e	_
4d	and
=37	=37
[1B	gone
=38	=38
2B]	_
4r	.
4B	A
=39	=39
2.e	man
4d	gets
=40	=40
4e	tied
4d	up
4.e	to
8d	the
=41	=41
1e	ground,
=42	=42
4r	.
4e	he
4.g	gives
8e	the
=43	=43
[1d	world
=44	=44
4d]	_
4d	its
4e	sad-
4d	-dest
=45	=45
1B	sound,
=46	=46
4r	.
Aq	it's
4B	_
4A	sad-
4G	-dest
=47	=47
8A	sound
8G	_
[4E	_
2E]	_
=48	=48
2r	.
Aq	Mmm,
2B	_
=49	=49
Aq	mmm...
1B	_
=50	=50
1r	.
=51	=51
1r	.
=52	=52
2r	.
4r	.
4BB	I'd
=53	=53
4E	ra-
4D#	-ther
4E	be
8F#	a
[8G	fo-
=54	=54
4G]	_
4F#	-rest
4G	than
4A	a
=55	=55
4B	street.
4r	.
2r	.
=56	=56
2r	.
8e	Yes,
4.d	I
=57	=57
Aq	would...
2B	_
2r	.
=58	=58
2r	.
8e	if
[8d	I
8d]	_
[8e	could
=59	=59
8e]	_
[8d	_
8d]	_
[8B	_
2B_	_
=60	=60
4B]	,
4B	I
4A	sure-
8G	-ly
[8A	would
=61	=61
8A]	_
8G	_
2.E	_
=62	=62
2r	.
4r	.
4BB	I'd
=63	=63
4E	ra-
8D#	-ther
[8E	feel
4E]	_
8F#	the
[8G	earth
=64	=64
4G]	_
8F#	be
[8G	neath
8G]	_
[8A	my
4A]	_
=65	=65
4B	feet.
4r	.
2r	.
=66	=66
2r	.
8e	Yes,
4.d	I
=67	=67
Aq	would...
2.B	_
4r	.
=68	=68
6r	.
6e	if
6d	I
4e	on-
8d	-ly
[8e	could
=69	=69
8e]	_
[8d	_
8d]	_
[8B	_
2B_	_
=70	=70
4B]	,
4B	I
4A	sure-
8G	-ly
8A	would
=71	=71
8A	_
[8G	_
4G]	_
2E	_
=72	=72
1r	.
=73	=73
1r	.
=74	=74
1r	.
=75	=75
1r	.
=76	=76
1r	.
=77	=77
1r	.
=78	=78
1r	.
=79	=79
1r	.
=80	=80
1r	.
=81	=81
1r	.
=82	=82
1r	.
=83	=83
1r	.
=84	=84
1r	.
=85	=85
1r	.
=86	=86
1r	.
=87	=87
1r	.
=88	=88
1r	.
=89	=89
1r	.
=90	=90
1r	.
=91	=91
1r	.
=92	=92
1r	.
=93	=93
1r	.
=94	=94
r;	.
*-	*-
!!!ENC: Nathaniel Condit-Schultz